!!!COM: Music21
!!!OTL: hornpipe_Butterslip--The
!!!OMV: hornpipe_Butterslip--The
**kern
*clefG2
*k[f#c#]
*D:
*M4/4
=1
8aL
8gJ
=||
8f#L
8aJ
8eL
8f#J
8dL
8f#J
8aL
8f#J
=
8gL
8bJ
8f#L
8gJ
4e
4a
=
4e
8bL
8cc#J
4e
4a
=
8eL
8AJ
8c#L
8dJ
8eL
8f#J
8f#L
8eJ
=
8f#L
8aJ
8eL
8f#J
8dL
8f#J
8aL
8f#J
!!linebreak:original
=
8gL
8bJ
8f#L
8gJ
4e
4a
=
8eL
8AJ
8c#L
8dJ
8eL
8f#J
8gL
8eJ
=
4d
8f#L
8eJ
4d
8aL
8gJ
=||
8f#L
8aJ
8eL
8f#J
8dL
8f#J
8aL
8f#J
=
8gL
8bJ
8f#L
8gJ
4e
4a
=
4e
8bL
8cc#J
4e
4a
!!linebreak:original
=
8eL
8AJ
8c#L
8dJ
8eL
8f#J
8f#L
8eJ
=
8f#L
8aJ
8eL
8f#J
8dL
8f#J
8aL
8f#J
=
8gL
8bJ
8f#L
8gJ
4e
4a
=
8eL
8AJ
8c#L
8dJ
8eL
8f#J
8gL
8eJ
=
12dL
12e
12dJ
8c#L
8eJ
4d
8eeL
8ddJ
!!linebreak:original
=||
8cc#L
8eeJ
8aL
8bJ
8cc#L
8ddJ
8eeL
8ff#J
=
4gg
8ggL
8ff#J
8ggL
8bbJ
8eeL
8ddJ
=
4cc#
8aL
8bJ
8cc#L
8ddJ
8eeL
8ddJ
=
8cc#L
8aJ
8gL
8eJ
8eL
8dJ
4d
=
8bL
8cc#J
8aL
8bJ
8cc#L
8ddJ
8eeL
8ff#J
!!linebreak:original
=
8ggL
8bbJ
12aaL
12gg
12ff#J
8ggL
8ff#J
8eeL
8ggJ
=
4ff#
8ddL
8ff#J
8eeL
8aJ
12bL
12cc#
12ddJ
=
8eeL
8aaJ
8ff#L
8eeJ
8ddL
8ff#J
8eeL
8ddJ
=||
8cc#L
8eeJ
8aL
8bJ
8cc#L
8ddJ
8eeL
8ff#J
=
4gg
8ggL
8ff#J
8ggL
8bbJ
8eeL
8ddJ
!!linebreak:original
=
4cc#
8aL
8bJ
8cc#L
8ddJ
8eeL
8ddJ
=
8cc#L
8aJ
8gL
8eJ
8eL
8dJ
4d
=
8bL
8cc#J
8aL
8bJ
8cc#L
8ddJ
8eeL
8ff#J
=
8ggL
8bbJ
12aaL
12gg
12ff#J
8ggL
8ff#J
8eeL
8ggJ
=
4ff#
8ddL
8ff#J
8eeL
8aJ
12bL
12cc#
12ddJ
!!linebreak:original
=
8eeL
8aaJ
8ff#L
8eeJ
8ddL
8cc#J
8aL
8gJ
=||
*-
